X: 34771
T: Road To Port Fairy, The
R: reel
M: 4/4
K: Eminor
Bd|:e3 g e2 de|gedB AGAB|E/2G/2E/D/2 EG A2 Bd|eBAG EABd|
e3 g e2 de|gedB AGAB|eage dBGB|(3cBA BG A4:|
|:aged e3 g|agbg ageg|aged e3 g|a3 b ageg|
aged e3 g|agbg aged|eage dBGB|(3cBA BG A4:|

